T: Starry Nights Of Shetland, The
M: 3/4
L: 1/8
K: Dmaj
A|:f2d ABA|GFG c2B|ABc ecA|f^ef =ecA|f2d ABA|GFG c2B|Aef gBc|[1dfe d2A:|[2dfe def||:gBg gBg|fAf fAf|fdf agf|ecB A2A|f2d ABA|GFG c2B|Aef gBc|[1dfe def:|[2dfe d2|]A2|:f2fd ABA_A|GFGB cdcB|ABcd e^deA|f^efg =ecBA|f2fd ABA_A|GFGB cdcB|(3ABc (3def (3gec (3ABc|[1d2f2 d2A2:|[2d2f2 d2ef||:gBdg Bdge|fAdf Adfg|f^efg agfd|(3efe (3dcB A2A2|f2fd ABA_A|GFGB cdcB|(3ABc (3def (3gec (3ABc|[1d2f2 d2ef:|[2d2f2 d2|]A|:f3d A2BA|G2G2 c3B|A2c2 e2A2|fgfe f2A2|f3d A2BA|G2G2 c3B|A2ef g2c2|[1d4 d2A2:|[2d4 d2ef||:g2B2 g2de|f2A2 f3g|f2df a2gf|e4 e2A2|f3d A2BA|G2G2 c3B|A2ef g2c2|[1d4 d2ef:|[2d4 d2|]A|f<ff>d A2B>A|G<GG>B c2-c>B|A<AA>c e>dc<A|A<ff>g e2-e>A|f<ff>d A2B>A|G<GG>B c2-c>B|A>ce<f g>eB<c|d4 d2 e>f|g2B>g g<Bg2|f2A>f f<Af>g|f2d>f a>gf<d|e>d c/d/e/f/ e/d/c/B/ A>A|f<ff>d A2B>A|G<GG>B c2-c>B|A>ce<f g>eB<c|d4 d2|]A2|:fedB A2BA|GABd cdcB|ABcd eAce|fedB A3A|fedB A2BA|GABd cdcB|Acef geBc|[1dfec d2A2:|[2dfec d2ef||:gdBd (3gag eg|fdAd (3fgf eg|fdfg agfd|edcB ABcA|fedB A2BA|GABd cdcB|Acef geBc|[1dfec d2ef:|[2dfec d2|]
